t135 l8 @w50 o5
ar16.a32aggg fgab-agab- <cdfdc>b-a gr16.g32gar16.a32a afag1 r2
/:
cr16c16
f4g4a4b-4 <c4f2e.d16 d4.cr>bb<d c4>a2>a.a16
a4a4b4<c+4 d2rdef g2rddf f4e4d4c4
a2&ab-ag f2d4f4 g2&gagf f2e4c4
<c2&c>ab-<c d2&d>def b-2a2 f2.
:/
;

t135 l8 @w30 o5
fr16.f32fccc >a<cfgfcfg ab-<d>b-agf cr16.c32cfr16.f32f f>a<fc1 r2
/:
>b-r16b-16
a4<c4f4f4- f2f2 b-4.arg+g+b a4f2.
>c+4c+4d4e4 f2rfga< d2r>bb<d d4c4>b-4b-4
<c+2&c+c+c+c+ d2>a4a4 <d2&d>bbb b-2b-4b-4
<f+2&f+f+ga b-2&b->b-<cd d2e2 >a2.<
:/
